X:1
T: The Lover's Luck
N:
C:
S:
A:
O:
R:
M:3/2
K:Am
I:speed 150
%W: A1
% voice 1 (1 lines, 28 notes)
K:Am
M:3/2
L:1/16
A4 e2 |d2 e4 |f2 e2 d4 |e2 d2 c4 |d2 c2 B4 |c2 B2 A4 |B2 A2 ^G4 |B8 |c8 |d2 e2 f4 |e4 f4 |d4 e8 |
%W:
% voice 1 (1 lines, 29 notes)
A4 e2 |d2 e4 |f2 e2 d4 |e2 d2 c4 |d2 c2 B4 |c2 B2 A4 |B2 A2 G4 |c8 |d2 e2 f2 |e2 d2 c2 |B12 |A4 A8 |
%W: A2
% voice 1 (1 lines, 28 notes)
A4 e2 |d2 e4 |f2 e2 d4 |e2 d2 c4 |d2 c2 B4 |c2 B2 A4 |B2 A2 ^G4 |B8 |c8 |d2 e2 f4 |e4 f4 |d4 e8 |
%W:
% voice 1 (1 lines, 29 notes)
A4 e2 |d2 e4 |f2 e2 d4 |e2 d2 c4 |d2 c2 B4 |c2 B2 A4 |B2 A2 G4 |c8 |d2 e2 f2 |e2 d2 c2 |B12 |A4 A8 |
%W: B1
% voice 1 (1 lines, 21 notes)
e4 c4 |G4 c4 |e4 c4 |d4 g4 |d4 B4 |d4 G4 |c4 A4 |E4 c4 |B4 A4 |^G12 |A4 B8 |
%W:
% voice 1 (1 lines, 24 notes)
c4 d2 |e2 d4 |e2 f2 e4 |^f2 g2 ^f4 |b2 c'2 b4 |a4 ^g4 |e4 c'4 |a8 |e4 d4 |e4 c12 |B4 A8 |
%W: B2
% voice 1 (1 lines, 21 notes)
e4 c4 |G4 c4 |e4 c4 |d4 g4 |d4 B4 |d4 G4 |c4 A4 |E4 c4 |B4 A4 |^G12 |A4 B8 |
%W:
% voice 1 (1 lines, 24 notes)
c4 d2 |e2 d4 |e2 f2 e4 |^f2 g2 ^f4 |b2 c'2 b4 |a4 ^g4 |e4 c'4 |a8 |e4 d4 |e4 c12 |B4 A8 ||
